icons/mimetypes/64/text-x-tcl.svg

<?xml version="1.0" encoding="UTF-8" standalone="no"?>
<svg
   xmlns:dc="http://purl.org/dc/elements/1.1/"
   xmlns:cc="http://creativecommons.org/ns#"
   xmlns:rdf="http://www.w3.org/1999/02/22-rdf-syntax-ns#"
   xmlns:svg="http://www.w3.org/2000/svg"
   xmlns="http://www.w3.org/2000/svg"
   xmlns:xlink="http://www.w3.org/1999/xlink"
   xmlns:sodipodi="http://sodipodi.sourceforge.net/DTD/sodipodi-0.dtd"
   xmlns:inkscape="http://www.inkscape.org/namespaces/inkscape"
   width="64"
   version="1.1"
   viewBox="0 0 64 64"
   height="64"
   id="svg4273"
   inkscape:version="0.91 r13725"
   sodipodi:docname="text-x-tcl.svg">
  <sodipodi:namedview
     pagecolor="#ffffff"
     bordercolor="#666666"
     borderopacity="1"
     objecttolerance="10"
     gridtolerance="10"
     guidetolerance="10"
     inkscape:pageopacity="0"
     inkscape:pageshadow="2"
     inkscape:window-width="1920"
     inkscape:window-height="1021"
     id="namedview4295"
     showgrid="false"
     inkscape:zoom="3.6875"
     inkscape:cx="32"
     inkscape:cy="32"
     inkscape:window-x="0"
     inkscape:window-y="30"
     inkscape:window-maximized="1"
     inkscape:current-layer="svg4273" />
  <defs
     id="defs4">
    <linearGradient
       inkscape:collect="always"
       xlink:href="#linearGradient4300-8"
       id="linearGradient4306-5"
       y1="61"
       y2="3"
       x2="0"
       gradientUnits="userSpaceOnUse"
       gradientTransform="matrix(1,0,0,-1,0,64)" />
    <linearGradient
       inkscape:collect="always"
       id="linearGradient4300-8">
      <stop
         style="stop-color:#f27935"
         id="stop4302-5" />
      <stop
         offset="1"
         style="stop-color:#f2784b"
         id="stop4304-7" />
    </linearGradient>
    <linearGradient
       inkscape:collect="always"
       xlink:href="#linearGradient4351"
       id="linearGradient4357-8"
       y1="61"
       y2="47"
       x2="0"
       gradientUnits="userSpaceOnUse"
       gradientTransform="matrix(1,0,0,-1,0,64)" />
    <linearGradient
       inkscape:collect="always"
       id="linearGradient4351">
      <stop
         style="stop-color:#f7ab89"
         id="stop4353" />
      <stop
         offset="1"
         style="stop-color:#fbd2bf"
         id="stop4355" />
    </linearGradient>
    <linearGradient
       inkscape:collect="always"
       xlink:href="#linearGradient4410"
       id="linearGradient4427-5"
       y1="17"
       x1="40"
       y2="31"
       x2="54"
       gradientUnits="userSpaceOnUse" />
    <linearGradient
       inkscape:collect="always"
       id="linearGradient4410">
      <stop
         style="stop-color:#383e51"
         id="stop4412" />
      <stop
         offset="1"
         style="stop-color:#655c6f;stop-opacity:0"
         id="stop4414" />
    </linearGradient>
  </defs>
  <metadata
     id="metadata84">
    <rdf:RDF>
      <cc:Work
         rdf:about="">
        <dc:format>image/svg+xml</dc:format>
        <dc:type
           rdf:resource="http://purl.org/dc/dcmitype/StillImage" />
      </cc:Work>
    </rdf:RDF>
  </metadata>
  <path
     inkscape:connector-curvature="0"
     style="fill:url(#linearGradient4306-5);fill-opacity:1"
     id="rect3500-9"
     d="m 10,61 0,-58 30,0 14,14 0,30 0,14 -14,0 -30,0 z" />
  <rect
     width="30"
     x="10"
     y="-4"
     height="1"
     style="fill:#ffffff;fill-opacity:0.41176471"
     id="rect4169-2"
     transform="scale(1,-1)" />
  <rect
     width="44"
     x="10"
     y="-61"
     height="1"
     style="fill:#2e3132;fill-opacity:0.29411765"
     id="rect4236-8"
     transform="scale(1,-1)" />
  <path
     inkscape:connector-curvature="0"
     style="fill:url(#linearGradient4357-8);fill-opacity:1;fill-rule:evenodd"
     id="path4314-9"
     d="M 54,17 40,3 40,17 Z" />
  <path
     inkscape:connector-curvature="0"
     style="opacity:0.2;fill:url(#linearGradient4427-5);fill-rule:evenodd"
     id="path4320-7"
     d="M 40,17 54,31 54,17 Z" />
  <path
     inkscape:connector-curvature="0"
     style="fill:#fbd2bf"
     id="rect4173"
     d="M 25.707031,28 25,28.707031 30.292969,34 25,39.292969 25.707031,40 31,34.707031 31.707031,34 31,33.292969 25.707031,28 Z M 32,41 l 0,1 7,0 0,-1 -7,0 z" />
</svg>

<svg width="64" xmlns="http://www.w3.org/2000/svg" viewBox="0 0 64 64" height="64">
 <defs>
  <linearGradient id="a" y1="61" y2="3" x2="0" gradientUnits="userSpaceOnUse" gradientTransform="matrix(1 0 0-1 0 64)">
   <stop stop-color="#f27935"/>
   <stop offset="1" stop-color="#f2784b"/>
  </linearGradient>
  <linearGradient id="b" y1="61" y2="47" x2="0" gradientUnits="userSpaceOnUse" gradientTransform="matrix(1 0 0-1 0 64)">
   <stop stop-color="#f7ab89"/>
   <stop offset="1" stop-color="#fbd2bf"/>
  </linearGradient>
  <linearGradient id="c" y1="17" x1="40" y2="31" x2="54" gradientUnits="userSpaceOnUse">
   <stop stop-color="#383e51"/>
   <stop offset="1" stop-color="#655c6f" stop-opacity="0"/>
  </linearGradient>
 </defs>
 <path fill="url(#a)" d="m10 61v-58h30l14 14v44h-14z"/>
 <g transform="scale(1-1)">
  <rect width="30" x="10" y="-4" fill="#ffffff" height="1" fill-opacity=".412"/>
  <rect width="44" x="10" y="-61" fill="#2e3132" height="1" fill-opacity=".294"/>
 </g>
 <g fill-rule="evenodd">
  <path fill="url(#b)" d="m54 17l-14-14v14z"/>
  <path opacity=".2" fill="url(#c)" d="m40 17l14 14v-14z"/>
 </g>
 <path fill="#fbd2bf" d="m25.707 28l-.707.707 5.293 5.293-5.293 5.293.707.707 6-6-.707-.707zm6.293 13v1h7v-1z"/>
</svg>
